X: 1
T: Red Stockings
R: jig
Z: 2006 John Chambers <jc:trillian.mit.edu>
S: O'Neill's 1850 #774
S: handwritten MS (with chords)
N: First part identical to Saddle the Pony, second part different
M: 6/8
L: 1/8
K: G
D \
| "G"GBA G2B | "D7"def "G"gdB | "G"GBA "Em"G2B | "D7"AFD AFD \
| "G"GBA G2B | "D7"def "G"gdB | "C"ecA "G"dBG | "D7"cAF "G"G2 :|
|: c \
| "G"B/c/de dcB | "D7"def "G"gdc | "G"B/c/de "Em"dBG | "A7"ABG "D7"AFD \
| "G"B/c/de dcB | "D7"def "G"gdB | "C"ecA "G"dBG | "D7"cAF "G"G2 :|
